packages/core/src/svgs/bcb.svg

<svg width="24" height="24" viewBox="0 0 24 24" fill="none" xmlns="http://www.w3.org/2000/svg">
<g clip-path="url(#clip0_31_6832)">
<path d="M0 0H24V24H0V0Z" fill="#070B48"/>
<path fill-rule="evenodd" clip-rule="evenodd" d="M12.0001 18.4286C13.705 18.4286 15.3402 17.7513 16.5458 16.5458C17.7513 15.3402 18.4286 13.705 18.4286 12.0001C18.4286 10.2951 17.7513 8.65997 16.5458 7.45438C15.3402 6.24879 13.705 5.5715 12.0001 5.5715C10.2951 5.5715 8.65997 6.24879 7.45438 7.45438C6.24879 8.65997 5.5715 10.2951 5.5715 12.0001C5.5715 13.705 6.24879 15.3402 7.45438 16.5458C8.65997 17.7513 10.2951 18.4286 12.0001 18.4286ZM12.0001 19.2858C13.9324 19.2858 15.7855 18.5182 17.1518 17.1518C18.5182 15.7855 19.2858 13.9324 19.2858 12.0001C19.2858 10.0678 18.5182 8.21463 17.1518 6.84829C15.7855 5.48196 13.9324 4.71436 12.0001 4.71436C10.0678 4.71436 8.21463 5.48196 6.84829 6.84829C5.48196 8.21463 4.71436 10.0678 4.71436 12.0001C4.71436 13.9324 5.48196 15.7855 6.84829 17.1518C8.21463 18.5182 10.0678 19.2858 12.0001 19.2858Z" fill="url(#paint0_linear_31_6832)"/>
<path d="M11.1428 9L10.2856 9.85714V11.5714L11.7856 9.85714H13.0714L12.2142 10.7143H11.7856L10.9285 11.5714H14.1428L13.2856 12.8571H11.1428L10.2856 13.7143H14.1428L16.0714 10.7143H13.7142L15.4285 9H11.1428Z" fill="white"/>
<path d="M8.6999 9.03857L9.42847 9.76715V10.3757L8.87133 9.81857L7.74419 13.02L9.99419 15.4543L10.3242 14.5714H10.7828L10.1485 16.26L7.25562 13.1229L8.69562 9.03857H8.6999ZM10.8299 14.5714L10.1656 16.3457L14.5156 15.6171L14.8628 14.5714H14.4128L14.1899 15.24L10.8256 15.7971L11.2928 14.5714H10.8342H10.8299Z" fill="url(#paint1_linear_31_6832)"/>
</g>
<defs>
<linearGradient id="paint0_linear_31_6832" x1="4.92864" y1="12.4286" x2="19.0715" y2="12.4286" gradientUnits="userSpaceOnUse">
<stop stop-color="#0387FA"/>
<stop offset="1" stop-color="#01FEFF"/>
</linearGradient>
<linearGradient id="paint1_linear_31_6832" x1="8.35704" y1="10.0714" x2="14.5713" y2="15.4286" gradientUnits="userSpaceOnUse">
<stop stop-color="#11F6FC"/>
<stop offset="1" stop-color="#017EF2"/>
</linearGradient>
<clipPath id="clip0_31_6832">
<rect width="24" height="24" fill="white"/>
</clipPath>
</defs>
</svg>

<svg xmlns="http://www.w3.org/2000/svg" width="24" height="24" fill="none" viewBox="0 0 24 24"><g clip-path="url(#a)"><path fill="#070B48" d="M0 0h24v24H0z"/><path fill="url(#b)" fill-rule="evenodd" d="M12 18.429A6.429 6.429 0 1 0 12 5.57a6.429 6.429 0 0 0 0 12.858m0 .857a7.285 7.285 0 1 0 0-14.57 7.285 7.285 0 0 0 0 14.57" clip-rule="evenodd"/><path fill="#fff" d="m11.143 9-.857.857v1.714l1.5-1.714h1.285l-.857.857h-.428l-.857.857h3.214l-.857 1.286h-2.143l-.857.857h3.857l1.928-3h-2.357L15.428 9z"/><path fill="url(#c)" d="m8.7 9.039.728.728v.609l-.557-.557-1.127 3.201 2.25 2.434.33-.883h.459l-.634 1.689-2.893-3.137 1.44-4.084zm2.13 5.532-.664 1.775 4.35-.729.347-1.046h-.45l-.223.669-3.364.557.467-1.226h-.463"/></g><defs><linearGradient id="b" x1="4.929" x2="19.072" y1="12.429" y2="12.429" gradientUnits="userSpaceOnUse"><stop stop-color="#0387FA"/><stop offset="1" stop-color="#01FEFF"/></linearGradient><linearGradient id="c" x1="8.357" x2="14.571" y1="10.071" y2="15.429" gradientUnits="userSpaceOnUse"><stop stop-color="#11F6FC"/><stop offset="1" stop-color="#017EF2"/></linearGradient><clipPath id="a"><path fill="#fff" d="M0 0h24v24H0z"/></clipPath></defs></svg>
